X: 7
T: Missa Sine nomine i / Gloria
N: Derived from Tin1002b-Missa_Sine_nomine_I-Gloria.krn
C: Johannes Tinctoris
%%abc-version 2.0
%%abcx-abcm2ps-target-version 5.9.1 (29 Sep 2008)
%%abc-creator hum2abc beta
%%abcx-conversion-date 2019/02/17 07:34:55
%%abc-edited-by Jesse Rodin
%%abc-edited-by Chris Gage/Jesse Rodin 12-17-2014
%%abcx-initial-encoding-date 2015/01/18/
%%humdrum-veritas 2346911063
%%humdrum-veritas-data 69904533
%%linebreak <none>
%%barnumbers 0
L: 1/4
M: 3/1
Q: 1/2=120
V: 1 clef=treble-8
V: 2 clef=treble-8
V: 3 clef=bass
K: Bb
[V:1] c8B4 | 
[V:2] C6E2D4 | 
[V:3] C,3B,,A,,F,,C,2G,,4 | 
[V:1] c6d2e3d/c/ | 
[V:2] C2E4F2G4- | 
[V:3] C,,3C,,2E,,D,,2C,,4- | 
[V:1] e2d3cB2A4 | 
[V:2] G8^F4 | 
[V:3] C,,2G,,3A,,B,,C,D,4 | 
[V:1] z2G3AB2c2d2- | 
[V:2] G4C2D2E2F2 | 
[V:3] G,,4z2G,,2C,2B,,2 | 
[V:1] dcBAB2c2z2C2- | 
[V:2] G3FEDE2F4 | 
[V:3] G,,6C,,2D,,E,,F,,3/G,,/ | 
[V:1] CDE2F2G3FED | 
[V:2] z12 | 
[V:3] A,,B,,C,2zD,C,E,2D,C,B,,/A,,/ | 
[V:1] E2F3E/D/E2D4 | 
[V:2] z12 | 
[V:3] G,,F,,/E,,/D,,3/E,,/F,,G,,C,,C,2=B,,=B,,A,,/=B,,/ | 
[V:1] C8z4 | 
[V:2] C4E4D4- | 
[V:3] C,4z2_A,,2B,,3G,,- | 
[V:1] z4c4e4 | 
[V:2] D4C4z2C2 | 
[V:3] G,,F,,G,,2z2C,,6 | 
[V:1] d8c4 | 
[V:2] B,2G,3A,B,G,A,2F,2 | 
[V:3] G,,3B,,2A,,G,,B,,F,,2C,2- | 
[V:1] z2G3AB2E2B2- | 
[V:2] C3DE3FG4- | 
[V:3] C,D,E,2C,2G,,2zC,,G,,2 | 
[V:1] B2c2B2e4d2 | 
[V:2] G2E2G4F4 | 
[V:3] E,,2C,,2E,,4B,,4 | 
[V:1] e8z2e2 | 
[V:2] E3FG2E3DC2 | 
[V:3] E,,2C,,6C,,4 | 
[V:1] d2Bc2BG2F2zB | 
[V:2] B,D2CE4F2D2 | 
[V:3] G,,3C,,C,4(3F,,2C,2D,2 | 
[V:1] c2d3cB4A2 | 
[V:2] E2F2B,4C4 | 
[V:3] C,2B,,3A,,G,,2F,,4 | 
[V:1] B12 | 
[V:2] B,4z2G,3A,B,C | 
[V:3] G,,3E,,2D,,E,,F,,G,,3A,, | 
[V:1] z12 | 
[V:2] D2E3DC4=B,2 | 
[V:3] B,,2C,2C,,2E,,2D,,4 | 
[V:1] G2A3Gc3B/A/B2 | 
[V:2] C8A,2G,2 | 
[V:3] C,,2F,,3E,,C,,2F,,2G,,2 | 
[V:1] e2dd2ced3/c/BA2 | 
[V:2] G3DF2G3G2F | 
[V:3] zG,,G,,2F,,_A,,G,,3F,,D,,2 | 
[V:1] zBGc2=Bc2z4 | 
[V:2] _AG3/F/ED2zECF2=E | 
[V:3] F,,E,,2C,,G,,2C,,2F,,A,,G,,2 | 
[V:1] z4z4z2c2- | 
[V:2] F4z2F3FF2- | 
[V:3] F,,8F,,3F,, | 
[V:1] ccc3c2cG4 | 
[V:2] FF2FC4z2C2 | 
[V:3] F,,3F,,2F,,C,,4z2 | 
[V:1] z2G2B4z2B2 | 
[V:2] E4z2E2G4 | 
[V:3] C,,2E,,4z2E,,2G,,2- | 
[V:1] d4z2d2f4 | 
[V:2] z2G2B4z2B2- | 
[V:3] G,,2z2G,,2B,,6 | 
[V:1] d2e2c4d3c | 
[V:2] B2G2A2F4G2- | 
[V:3] B,,2C,2F,,4B,,2G,,2- | 
[V:1] BAG4c3=B=BA | 
[V:2] GFEDC2E2D4 | 
[V:3] G,,A,,/B,,/C,D,E,2C,2G,,4 | 
[V:1] c12 ||  
[V:2] C12 ||  
[V:3] C,,12 ||  
[V:1]  [K:Bb] [K:clef=treble-8][M:2/1]G8- | 
[V:2]  [K:Bb] [K:clef=treble-8][M:2/1]C8- | 
[V:3]  [K:Bb] [K:clef=bass][M:2/1]z8 | 
[V:1] G4G4 | 
[V:2] C8 | 
[V:3] z8 | 
[V:1] A4B4 | 
[V:2] C4D2E2- | 
[V:3] z8 | 
[V:1] c4z2C2- | 
[V:2] E2F4G2 | 
[V:3] z8 | 
[V:1] C4D2E2 | 
[V:2] E4F2G2 | 
[V:3] z8 | 
[V:1] F3GABc2- | 
[V:2] A2F4E2 | 
[V:3] z8 | 
[V:1] c2f4=e2 | 
[V:2] F2A2G4 | 
[V:3] z8 | 
[V:1] f4e2d2- | 
[V:2] F4G4- | 
[V:3] z8 | 
[V:1] dcB2cBAG | 
[V:2] G4C4- | 
[V:3] z8 | 
[V:1] A2B2c2d2 | 
[V:2] C2D2E2F2 | 
[V:3] z8 | 
[V:1] [M:2/1](3G2A2B2(3c2d2e2 | 
[V:2] G4E4 | 
[V:3] z8 | 
[V:1] [M:2/1]fedc=B3A | 
[V:2] D8 | 
[V:3] z8 | 
[V:1] c8 | 
[V:2] z4C3D | 
[V:3] z8 | 
[V:1] z4F4- | 
[V:2] E2D3CB,2- | 
[V:3] z8 | 
[V:1] F4c4- | 
[V:2] B,A,F,3G,A,B, | 
[V:3] z8 | 
[V:1] c2BAB2c2 | 
[V:2] C2D4E2 | 
[V:3] z8 | 
[V:1] d2c3BA2 | 
[V:2] F4z2F2 | 
[V:3] z8 | 
[V:1] G2c4F2- | 
[V:2] E2C2F4 | 
[V:3] z8 | 
[V:1] FEF2G2C2- | 
[V:2] B,3_A,B,2C2 | 
[V:3] z8 | 
[V:1] C2c3BA2 | 
[V:2] F,4F4 | 
[V:3] z8 | 
[V:1] G2B3AGF | 
[V:2] E3FGAB2- | 
[V:3] z8 | 
[V:1] E2_A2G4 | 
[V:2] BAF4=E2 | 
[V:3] z8 | 
[V:1] z2F6 | 
[V:2] F4D4 | 
[V:3] z8 | 
[V:1] G4C4 | 
[V:2] z2E3DC2 | 
[V:3] z8 | 
[V:1] D4z2e2- | 
[V:2] =B,4C4 | 
[V:3] z8 | 
[V:1] edc2B2f2- | 
[V:2] z2C2D3E | 
[V:3] z8 | 
[V:1] fedce2d2- | 
[V:2] F3EG3F | 
[V:3] z8 | 
[V:1] dGc4=B2 | 
[V:2] G2E2D4 | 
[V:3] z8 | 
[V:1] c8 | 
[V:2] C8 | 
[V:3] z8 | 
[V:1] !fermata!G8 | 
[V:2] !fermata!E8 | 
[V:3] !fermata!C,8 | 
[V:1] !fermata!c8 | 
[V:2] !fermata!E8 | 
[V:3] !fermata!_A,,8 | 
[V:1] !fermata!c8 | 
[V:2] !fermata!E8 | 
[V:3] !fermata!C,8 | 
[V:1] !fermata!=B8 ||  
[V:2] !fermata!D8 ||  
[V:3] !fermata!G,,8 ||  
[V:1]  [K:Bb] [K:clef=treble-8][M:3/1]z12 | 
[V:2]  [K:Bb] [K:clef=bass][M:3/1]C,6B,,A,,B,,4 | 
[V:3]  [K:Bb] [K:clef=bass][M:3/1]C,,8D,,4 | 
[V:1] z12 | 
[V:2] C,3B,,G,,3A,,B,,C,D,2 | 
[V:3] C,,2E,,3F,,G,,3A,,B,,2 | 
[V:1] z12 | 
[V:2] E,2C,2B,,2D,3C,B,,A,, | 
[V:3] C,2E,2D,2F,3E,D,C, | 
[V:1] z12 | 
[V:2] G,,2C,4=B,,2=B,,2A,,=B,, | 
[V:3] E,4D,8 | 
[V:1] z12 | 
[V:2] C,4F,,2C,3B,,A,,2 | 
[V:3] z2C,3B,,A,,3G,,F,,2- | 
[V:1] z12 | 
[V:2] G,,4z2F,,2C,2B,,2 | 
[V:3] F,,2=E,,2F,,2_A,,4G,,2- | 
[V:1] z12 | 
[V:2] G,,4A,,2B,,3A,,G,,2- | 
[V:3] G,,F,,E,,2D,,2D,3C,B,,2 | 
[V:1] z12 | 
[V:2] G,,2^F,,2G,,2G,3F,G,2 | 
[V:3] A,,4z2zG,,C,3B,, | 
[V:1] z12 | 
[V:2] =E,3D,E,2C,3B,,C,2 | 
[V:3] C,2A,,3G,,A,,2F,,3E,, | 
[V:1] z12 | 
[V:2] D,2B,,2G,,2C,4=B,,2 | 
[V:3] F,,2G,,2E,,2C,,2D,,4 | 
[V:1] z12 | 
[V:2] C,4z2G,,3A,,B,,2 | 
[V:3] z2C,,3D,,E,,2C,,2G,,2- | 
[V:1] z12 | 
[V:2] G,,2D,3=E,F,2D,2B,,2- | 
[V:3] G,,A,,B,,2G,,2D,3=E,F,2 | 
[V:1] z12 | 
[V:2] B,,2C,2B,,3A,,/B,,/C,2E,2 | 
[V:3] D,2E,2D,3C,/B,,/A,,G,,C,2- | 
[V:1] z12 | 
[V:2] D,3C,/B,,/A,,G,,C,4=B,,2 | 
[V:3] C,2B,,2C,2E,2D,4 | 
[V:1] z12 ||  
[V:2] C,12 ||  
[V:3] C,12 ||  
[V:1]  [K:Bb] [K:clef=treble-8][M:4/2]G8 | 
[V:2]  [K:Bb] [K:clef=bass][M:4/2]E,6D,C, | 
[V:3]  [K:Bb] [K:clef=bass][M:4/2]C,6B,,A,, | 
[V:1] d4e4- | 
[V:2] =B,,4C,2E,2- | 
[V:3] G,,4C,,2C,2- | 
[V:1] e2dcB4- | 
[V:2] E,2F,2G,2F,E, | 
[V:3] C,2B,,A,,G,,4- | 
[V:1] B4c4 | 
[V:2] D,4C,4 | 
[V:3] G,,4A,,4 | 
[V:1] d6cB | 
[V:2] z2B,,2D,2E,2 | 
[V:3] B,,4G,,4 | 
[V:1] A2G2c4 | 
[V:2] F,2E,4C,2- | 
[V:3] F,,2G,,2C,,4 | 
[V:1] z2C3DE2 | 
[V:2] C,D,E,F,G,4 | 
[V:3] C,3D,E,D,C,B,, | 
[V:1] F2G3AB2 | 
[V:2] A,2B,2G,4 | 
[V:3] A,,2G,,3F,,E,,D,, | 
[V:1] c3de2f2- | 
[V:2] E,2F,2G,2A,2 | 
[V:3] C,,2F,,2C,,2F,,2 | 
[V:1] fedcB3c | 
[V:2] B,3A,G,F,E,2 | 
[V:3] B,,,2B,,3A,,G,,2 | 
[V:1] d2e4d2- | 
[V:2] F,2G,2C,2F,2- | 
[V:3] F,,2E,,2_A,,2B,,2- | 
[V:1] d2c4=B2 | 
[V:2] F,2E,2D,4 | 
[V:3] B,,2C,2G,,4 | 
[V:1] c8- | 
[V:2] z4C,4 | 
[V:3] C,,4z2E,2- | 
[V:1] c4G4- | 
[V:2] C,6D,2 | 
[V:3] E,D,E,2C,2G,,2 | 
[V:1] G2A2B3A/B/ | 
[V:2] E,2F,2D,4 | 
[V:3] C,2F,,2G,,4 | 
[V:1] c2B3AG2 | 
[V:2] C,2D,2E,4 | 
[V:3] _A,,2G,,3F,,E,,2 | 
[V:1] F2E2e4- | 
[V:2] F,2G,4_A,2 | 
[V:3] D,,2C,,6 | 
[V:1] e2dcd4 | 
[V:2] G,2F,E,F,4 | 
[V:3] E,,4B,,4 | 
[V:1] e8 | 
[V:2] z2E,2C,2D,2 | 
[V:3] E,,6D,,2 | 
[V:1] z4E4 | 
[V:2] E,4C,2G,2- | 
[V:3] C,,2C,4E,2- | 
[V:1] C2D2E4 | 
[V:2] G,2F,2G,2F,E, | 
[V:3] E,2D,2C,4 | 
[V:1] F3G_A2G2- | 
[V:2] D,4C,3D, | 
[V:3] B,,4F,,2C,2- | 
[V:1] GFE2D4 | 
[V:2] E,4F,3G, | 
[V:3] C,4B,,3G,, | 
[V:1] C4z4 | 
[V:2] _A,2G,3F,E,2 | 
[V:3] F,,2C,,2G,,3A,, | 
[V:1] z4G4- | 
[V:2] D,4C,4- | 
[V:3] B,,4C,3D, | 
[V:1] G2A2B2G2- | 
[V:2] C,2F,3E,D,2- | 
[V:3] E,2D,3C,B,,2 | 
[V:1] G2^F2G4 | 
[V:2] D,2C,2D,4 | 
[V:3] A,,4G,,3A,, | 
[V:1] z8 | 
[V:2] G,,3A,,B,,2C,2 | 
[V:3] B,,2G,,3F,,E,,2 | 
[V:1] z8 | 
[V:2] D,2E,F,G,2E,2- | 
[V:3] F,,2G,,2C,,2G,,2- | 
[V:1] z8 | 
[V:2] E,D,C,4=B,,2 | 
[V:3] G,,F,,E,,2D,,4 | 
[V:1] e6de | 
[V:2] C,4z2C,2 | 
[V:3] z2C,,2C,4 | 
[V:1] fedcB3c | 
[V:2] D,4G,,4 | 
[V:3] B,,3C,D,2G,,2- | 
[V:1] d2G3AB2 | 
[V:2] G,3A,B,2E,2 | 
[V:3] G,,A,,B,,2E,,4- | 
[V:1] E2B4e2- | 
[V:2] G,6G,2- | 
[V:3] E,,8 | 
[V:1] edc2=B3A | 
[V:2] G,F,E,2D,4 | 
[V:3] E,,4G,,4 | 
[V:1] c8 ||  
[V:2] C,8 ||  
[V:3] C,,8 ||  
[V:1]  [K:Bb] [K:clef=treble-8][M:4/2]c8 | 
[V:2]  [K:Bb] [K:clef=bass][M:4/2]C,8- | 
[V:3]  [K:Bb] [K:clef=bass][M:4/2]C,,8 | 
[V:1] c6BA | 
[V:2] C,8 | 
[V:3] F,,3G,,A,,2B,,2 | 
[V:1] G4A4 | 
[V:2] E,4F,4 | 
[V:3] C,4z2F,,2 | 
[V:1] B8- | 
[V:2] G,4D,2G,2- | 
[V:3] E,,2G,,3F,,E,,2- | 
[V:1] B8 | 
[V:2] G,F,E,2D,4 | 
[V:3] E,,D,,E,,F,,G,,4 | 
[V:1] c8- | 
[V:2] z4C,4- | 
[V:3] C,,8 | 
[V:1] c8 | 
[V:2] C,2E,3D,C,2 | 
[V:3] z8 | 
[V:1] z4B4- | 
[V:2] B,,6C,2 | 
[V:3] G,,8- | 
[V:1] B2A2G2FE | 
[V:2] D,2E,F,G,4 | 
[V:3] G,,8 | 
[V:1] [M:2/1](3D6E2F4 | 
[V:2] F,4F,E,D,C, | 
[V:3] B,,8- | 
[V:1] (3G6A2B4 | 
[V:2] D,4G,,4 | 
[V:3] B,,8 | 
[V:1] (3:2:4c6B2A2G2 | 
[V:2] F,,8 | 
[V:3] A,,8- | 
[V:1] (3:2:4A4^F6E ^F | 
[V:2] C,6B,,C, | 
[V:3] A,,8 | 
[V:1] [M:2/1]G6B2- | 
[V:2] D,8 | 
[V:3] G,,8- | 
[V:1] BAB2G2FE | 
[V:2] z8 | 
[V:3] G,,8 | 
[V:1] D3CD2E2 | 
[V:2] B,,8- | 
[V:3] z4G,,4- | 
[V:1] D6CD | 
[V:2] B,,8 | 
[V:3] G,,2F,,E,,D,,4 | 
[V:1] E4C4 | 
[V:2] C,8- | 
[V:3] C,,4z2F,,2- | 
[V:1] z8 | 
[V:2] C,8 | 
[V:3] F,,2_A,,3G,,F,,2 | 
[V:1] =B8- | 
[V:2] z4D,4- | 
[V:3] G,,6G,,2- | 
[V:1] B8 | 
[V:2] D,2E,2D,4 | 
[V:3] G,,F,,E,,2F,,2G,,2 | 
[V:1] c8- | 
[V:2] C,8- | 
[V:3] C,,4z2F,,2- | 
[V:1] c8 | 
[V:2] C,4A,,4 | 
[V:3] F,,2E,,2F,,2G,,A,, | 
[V:1] d8- | 
[V:2] G,,2D,4F,2- | 
[V:3] B,,6D,2- | 
[V:1] d8 | 
[V:2] F,E,D,C,D,4 | 
[V:3] D,C,=B,,A,,=B,,4 | 
[V:1] e8- | 
[V:2] C,4z2C,2- | 
[V:3] C,8 | 
[V:1] e8 | 
[V:2] C,2A,,3B,,C,2 | 
[V:3] z8 | 
[V:1] d6f2- | 
[V:2] G,,4B,,4- | 
[V:3] D,8- | 
[V:1] fedc=B3A | 
[V:2] B,,2B,,2G,,4 | 
[V:3] D,8 | 
[V:1] c8 ||  
[V:2] G,8 ||  
[V:3] C,8 ||  
[V:1]  [K:Bb] [K:clef=treble-8][M:3/1]e8d4 | 
[V:2]  [K:Bb] [K:clef=bass][M:3/1]G,8G,2F,2- | 
[V:3]  [K:Bb] [K:clef=bass][M:3/1]C,8G,,2B,,2 | 
[V:1] c12 | 
[V:2] F,E,C,3D,E,2F,4 | 
[V:3] F,,3G,,A,,B,,C,2F,,4 | 
[V:1] [M:3/1]d6c2B2AG | 
[V:2] [M:3/1]F,4B,,2C,2D,3E, | 
[V:3] [M:3/1]B,,6A,,2G,,4 | 
[V:1] A2D4E2F2GA | 
[V:2] F,4B,,2C,2D,4 | 
[V:3] F,,2B,,4C,2B,,2G,,2- | 
[V:1] B2G4^F2^F2=E^F | 
[V:2] G,,4A,,8 | 
[V:3] G,,F,,E,,2D,,8 | 
[V:1] G8z4 | 
[V:2] G,,12 | 
[V:3] z2D,4B,,3C,D,2 | 
[V:1] [M:3/1]G6c4B2 | 
[V:2] [M:3/1]C,8G,,4 | 
[V:3] [M:3/1]E,8D,4 | 
[V:1] c6c3AGF/=E/ | 
[V:2] z2G,4E,3F,E,D,/C,/ | 
[V:3] C,12 | 
[V:1] [M:3/1]F4G2A2B4 | 
[V:2] [M:3/1]B,,6C,2D,4 | 
[V:3] [M:3/1]D,6C,2B,,2A,,G,, | 
[V:1] c2d3cB2A2G2 | 
[V:2] C,2F,4G,2F,E,D,C, | 
[V:3] A,,2D,,4E,,2F,,2G,,A,, | 
[V:1] F2G2z2A3Bc2 | 
[V:2] D,4B,,2C,2A,,4 | 
[V:3] B,,2G,,4^F,,2F,,2=E,,F,, | 
[V:1] B3cd6B2 | 
[V:2] z2G,,3A,,B,,3C,D,2- | 
[V:3] G,,12- | 
[V:1] B8z4 | 
[V:2] D,2E,2D,2E,F,G,4 | 
[V:3] G,,12 | 
[V:1] [M:3/1]c6f3=e/d/=e2 | 
[V:2] [M:3/1]_A,8G,4 | 
[V:3] [M:3/1]F,,8C,4 | 
[V:1] f4c2f3edc | 
[V:2] F,12 | 
[V:3] F,,8B,,3A,, | 
[V:1] [M:3/1]B8c4 | 
[V:2] [M:3/1]G,6F,2E,2D,C, | 
[V:3] [M:3/1]G,,4E,,2D,,2C,,4 | 
[V:1] B4G2FED2EF | 
[V:2] D,2G,,4A,,2B,,2C,D, | 
[V:3] G,,4E,,2F,,2G,,4 | 
[V:1] G4E2DCD4 | 
[V:2] E,2C,4=B,,2=B,,2A,,B,, | 
[V:3] C,,4z2G,,2G,,4 | 
[V:1] C12 | 
[V:2] C,3B,,A,,2G,,F,,G,,2A,,2 | 
[V:3] A,,2F,,4E,,D,,E,,2F,,2 | 
[V:1] !fermata![C12E12] | 
[V:2] !fermata!G,,12 | 
[V:3] !fermata!C,,12 | 
[V:1] z12 | 
[V:2] z12 | 
[V:3] z12 | 
[V:1] !fermata!G12 | 
[V:2] !fermata!B,,12 | 
[V:3] !fermata!G,,12 | 
[V:1] !fermata!G8A4 | 
[V:2] !fermata!E,12 | 
[V:3] !fermata!C,12 | 
[V:1] !fermata!=B12 | 
[V:2] !fermata!D,12 | 
[V:3] !fermata!G,,12 | 
[V:1] !fermata!c12 ||  
[V:2] !fermata!C,12 ||  
[V:3] !fermata!C,,12 ||  
[V:1]  [K:Bb] [K:clef=treble-8][M:3/1]G6FED2G2- | 
[V:2]  [K:Bb] [K:clef=bass][M:3/1]C,8B,,4 | 
[V:3]  [K:Bb] [K:clef=bass][M:3/1]C,,8G,,4 | 
[V:1] G2C4F4A2- | 
[V:2] C,4A,,4F,,4 | 
[V:3] C,,4F,,3G,,_A,,2F,,2- | 
[V:1] AGF2G2c3BAG | 
[V:2] F,4E,4C,2D,2- | 
[V:3] F,,E,,D,,2C,,4F,,4 | 
[V:1] B2A3GF4=E2 | 
[V:2] D,2C,3B,,A,,2G,,4 | 
[V:3] z2F,,6C,,4 | 
[V:1] F8z2c2 | 
[V:2] F,,4z2F,,2G,,2_A,,2 | 
[V:3] D,,3E,,F,,2D,,2C,,2F,,2 | 
[V:1] d2e2f2ecd2e2 | 
[V:2] B,,2C,2z4z2G,2- | 
[V:3] z2C,,2D,,2E,,2F,,2C,,2 | 
[V:1] B2d3cc4=B2 | 
[V:2] G,D,G,2F,2E,2D,4 | 
[V:3] G,,3A,,B,,2C,2G,,4 | 
[V:1] c8z2G2 | 
[V:2] C,4z4C,2E,2 | 
[V:3] C,,2F,,3E,,C,,2F,,2zC,, | 
[V:1] B2A2G2B3cd2- | 
[V:2] D,2C,2E,3F,G,3F, | 
[V:3] G,,B,,F,,2E,,2G,,3A,,B,,2- | 
[V:1] dcA3Bc3BAG | 
[V:2] D,3E,F,3E,C,4- | 
[V:3] B,,A,,F,,6F,,4- | 
[V:1] A2B3AG4^F2 | 
[V:2] C,2B,,2G,,4A,,4 | 
[V:3] F,,2G,,3F,,E,,2D,,4 | 
[V:1] G4z2C3DE2 | 
[V:2] z2G,,2A,,3B,,C,3B,, | 
[V:3] E,,2zC,,F,,3G,,_A,,B,,G,,2 | 
[V:1] z2D2C2G3AB2 | 
[V:2] C,A,,B,,2C,3D,E,F,D,2 | 
[V:3] F,,2G,,2C,,C,2B,,C,F,,G,,2 | 
[V:1] c2A2G3ABcd2- | 
[V:2] C,2zC,2D,E,F,G,3A, | 
[V:3] zC,,F,,2C,4G,,2B,,2- | 
[V:1] defedcc4=B2 | 
[V:2] B,A,F,2G,2E,2D,4 | 
[V:3] B,,C,D,2G,,2C,2G,,4 | 
[V:1] c12 |]  
[V:2] C,12 |]  
[V:3] C,,12 |]  



